packages/core/src/svgs/dmc.svg

<svg width="24" height="24" viewBox="0 0 24 24" fill="none" xmlns="http://www.w3.org/2000/svg">
<g clip-path="url(#clip0_31_9249)">
<path d="M0 0H24V24H0V0Z" fill="#F0F3FA"/>
<path d="M7.67994 11.143L6.61279 6.42871L9.45422 11.143H7.67994Z" fill="#02828B"/>
<path d="M7.67997 11.1431L5.14282 18.0002L9.45425 11.1431H7.67997Z" fill="#00514F"/>
<path d="M6.59996 6.44141L5.14282 18L7.71425 11.1428L6.59996 6.44141Z" fill="#001E1E"/>
<path d="M16.3199 11.143L17.3871 6.42871L14.5457 11.143H16.3199Z" fill="#02828B"/>
<path d="M16.3199 11.1431L18.8571 18.0002L14.5457 11.1431H16.3199Z" fill="#00514F"/>
<path d="M17.3999 6.44141L18.8571 18L16.2856 11.1428L17.3999 6.44141Z" fill="#001E1E"/>
<path d="M12.0001 10.2002C12.0001 10.2002 10.3715 10.7831 9.55298 11.0659L12.0001 15.0131V10.2002Z" fill="#00504F"/>
<path d="M12 10.1958C12 10.1958 13.6371 10.7829 14.4514 11.0658L12.0043 15.0129V10.2001L12 10.1958Z" fill="#001E1E"/>
<path d="M12.0001 7.14003V10.2129L9.55298 11.0786L12.0001 7.13574V7.14003Z" fill="#01A0A6"/>
<path d="M12 7.14003V10.2129L14.4514 11.07L12 7.13574V7.14003Z" fill="#028188"/>
</g>
<defs>
<clipPath id="clip0_31_9249">
<rect width="24" height="24" fill="white"/>
</clipPath>
</defs>
</svg>

<svg xmlns="http://www.w3.org/2000/svg" width="24" height="24" fill="none" viewBox="0 0 24 24"><g clip-path="url(#a)"><path fill="#F0F3FA" d="M0 0h24v24H0z"/><path fill="#02828B" d="M7.68 11.143 6.613 6.429l2.841 4.714z"/><path fill="#00514F" d="M7.68 11.143 5.143 18l4.311-6.857z"/><path fill="#001E1E" d="M6.6 6.441 5.143 18l2.571-6.857z"/><path fill="#02828B" d="m16.32 11.143 1.067-4.714-2.841 4.714z"/><path fill="#00514F" d="M16.32 11.143 18.857 18l-4.311-6.857z"/><path fill="#001E1E" d="M17.4 6.441 18.857 18l-2.571-6.857z"/><path fill="#00504F" d="M12 10.2s-1.629.583-2.447.866L12 15.013z"/><path fill="#001E1E" d="M12 10.196s1.637.587 2.451.87l-2.447 3.947V10.2z"/><path fill="#01A0A6" d="M12 7.14v3.073l-2.447.866L12 7.136z"/><path fill="#028188" d="M12 7.14v3.073l2.451.857L12 7.136z"/></g><defs><clipPath id="a"><path fill="#fff" d="M0 0h24v24H0z"/></clipPath></defs></svg>
